svg/eaton.svg

<svg width="24" height="7" viewBox="0 0 24 7" xmlns="http://www.w3.org/2000/svg">
<path d="M7.76882 1.25744L8.34891 3.35091H7.1455L7.76882 1.25744ZM6.7106 4.81499L6.18115 6.55055H9.27544L8.77639 4.81499L6.7106 4.81499ZM14.7853 0H8.84594V1.86387H10.7199V6.55055H13.7352C13.5482 6.43507 12.2698 5.42007 12.2698 3.52447C12.2732 1.94828 13.2254 0.405189 14.7853 0ZM15.8145 4.87104C16.5148 4.87104 17.078 4.2896 17.078 3.55418C17.078 2.81876 16.5506 2.16236 15.8395 2.16236C15.1284 2.16236 14.5692 2.82686 14.5692 3.55688C14.5692 4.2869 15.0953 4.87375 15.8172 4.87375L15.8145 4.87104ZM22.0436 4.11942L20.8375 0H17.7513V6.55055H19.6793V2.44599H19.6928L20.8875 6.55055H24V0H22.0558V4.11942H22.0436ZM3.73584 6.55055L4.2923 4.71369H2.22651V4.15994H4.4618L4.99192 2.39939H2.22651V1.86657H5.1459L5.70911 0H0V6.55055H3.73584Z"/>
</svg>

<svg width="24" height="7" viewBox="0 0 24 7" xmlns="http://www.w3.org/2000/svg"><path d="M7.769 1.257l.58 2.094H7.145l.624-2.094zM6.71 4.815l-.53 1.736h3.094l-.499-1.736H6.711zM14.785 0h-5.94v1.864h1.875V6.55h3.015c-.187-.116-1.465-1.13-1.465-3.027.003-1.576.955-3.119 2.515-3.524zm1.03 4.871c.7 0 1.263-.581 1.263-1.317 0-.735-.527-1.392-1.239-1.392-.71 0-1.27.665-1.27 1.395s.526 1.317 1.248 1.317l-.002-.003zm6.229-.752L20.837 0h-3.086v6.55h1.928V2.447h.014l1.194 4.105H24V0h-1.944v4.12h-.012zM3.736 6.551l.556-1.837H2.227V4.16h2.235l.53-1.76H2.227v-.533h2.919L5.709 0H0v6.55h3.736z"/></svg>
